other/kube-scale.svg

<svg width="269px" height="120px" viewBox="0 0 269 172" version="1.1" xmlns="http://www.w3.org/2000/svg" xmlns:xlink="http://www.w3.org/1999/xlink">
    <g stroke="none" stroke-width="1" fill="none" fill-rule="evenodd">
        <g>
            <polygon fill="#ACD1EF" points="0 161.509 242.334 161.509 242.334 150.176 0 150.176"></polygon>
            <polygon fill="#0078D7" points="257.2542 145.0355 257.2542 152.5095 249.7802 152.5095 249.7802 156.1155 257.2542 156.1155 257.2542 163.5885 260.8592 163.5885 260.8592 156.1155 268.3332 156.1155 268.3332 152.5095 260.8592 152.5095 260.8592 145.0355"></polygon>
            <polygon fill="#0078D7" points="78.999 171.176 91 171.176 91 138.51 78.999 138.51"></polygon>
            <path d="M91.9283,14.8014 C67.1723,14.8014 47.0323,34.9414 47.0323,59.6974 C47.0323,84.4524 67.1723,104.5924 91.9283,104.5924 C116.6843,104.5924 136.8243,84.4524 136.8243,59.6974 C136.8243,34.9414 116.6843,14.8014 91.9283,14.8014 M91.9283,106.0924 C66.3453,106.0924 45.5323,85.2804 45.5323,59.6974 C45.5323,34.1134 66.3453,13.3014 91.9283,13.3014 C117.5113,13.3014 138.3243,34.1134 138.3243,59.6974 C138.3243,85.2804 117.5113,106.0924 91.9283,106.0924" fill="#0078D7"></path>
            <path d="M91.9283,2.9996 C60.6653,2.9996 35.2313,28.4346 35.2313,59.6966 C35.2313,87.7456 56.1443,111.8716 83.8773,115.8146 L85.1663,115.9986 L85.1663,130.3776 L102.2923,115.4376 L102.6903,115.3616 C129.3073,110.2456 148.6253,86.8356 148.6253,59.6966 C148.6253,28.4346 123.1913,2.9996 91.9283,2.9996 Z M82.1663,136.9756 L82.1663,118.5876 C53.6073,113.8816 32.2313,88.7946 32.2313,59.6966 C32.2313,26.7796 59.0113,-0.0004 91.9283,-0.0004 C124.8453,-0.0004 151.6253,26.7796 151.6253,59.6966 C151.6253,88.1356 131.4763,112.6866 103.6563,118.2286 L82.1663,136.9756 Z" fill="#0078D7"></path>
            <path d="M107.6481,70.4976 C106.2091,72.7756 104.2911,74.7136 102.0281,76.1776 L98.3391,67.3356 C98.1471,66.6126 98.4901,65.8536 99.1591,65.5196 C99.4161,65.4006 99.6961,65.3406 99.9791,65.3456 L109.3461,66.9256 C108.9861,68.2036 108.4121,69.4106 107.6491,70.4976 L107.6481,70.4976 Z M96.2271,78.6356 C94.8821,78.9396 93.5081,79.0976 92.1291,79.1056 C90.1221,79.0936 88.1271,78.7756 86.2151,78.1656 L90.8391,69.7926 C91.2921,69.2356 92.0691,69.0656 92.7121,69.3836 C92.9871,69.5506 93.2271,69.7686 93.4191,70.0266 L97.9261,78.1656 C97.4001,78.3416 96.8141,78.4576 96.2291,78.6356 L96.2271,78.6356 Z M74.8611,66.9846 L84.1691,65.4036 C84.9441,65.3546 85.6391,65.8766 85.8091,66.6336 C85.8801,66.9456 85.8601,67.2726 85.7511,67.5736 L82.1791,76.1776 C78.8031,73.9916 76.2341,70.7646 74.8611,66.9846 Z M76.4411,51.1176 L83.4091,57.3236 C84.0441,57.8796 84.1221,58.8396 83.5851,59.4896 C83.4171,59.7296 83.1651,59.8976 82.8781,59.9606 L73.8071,62.5936 C73.4371,58.5846 74.3601,54.5626 76.4411,51.1176 Z M87.9761,42.8046 C88.6201,42.6866 89.2061,42.5686 89.8491,42.4526 L89.3221,51.8206 C89.2791,52.6646 88.5861,53.3296 87.7421,53.3396 C87.4951,53.3446 87.2521,53.2836 87.0361,53.1636 L79.2491,47.5996 C81.6431,45.2046 84.6691,43.5396 87.9721,42.7986 L87.9761,42.8046 Z M104.9551,47.6036 L97.2851,53.0496 C96.6121,53.4716 95.7301,53.3196 95.2361,52.6986 C95.0811,52.5156 94.9801,52.2916 94.9441,52.0546 L94.4171,42.5106 C98.4051,42.9706 102.1191,44.7656 104.9561,47.6046 L104.9551,47.6036 Z M109.9931,56.6806 C110.4471,58.6166 110.5861,60.6126 110.4021,62.5936 L101.4421,60.0176 C100.6331,59.7856 100.1461,58.9646 100.3301,58.1436 C100.3871,57.9016 100.5081,57.6796 100.6811,57.4996 L107.7651,51.1186 C108.8001,52.8426 109.5521,54.7216 109.9911,56.6836 L109.9931,56.6806 Z M94.7091,62.7686 L92.1331,63.9986 L89.5561,62.7686 L88.9131,60.0176 L90.6691,57.7926 L93.5381,57.7926 L95.2941,60.0176 L94.7091,62.7686 Z M121.8171,65.6386 L121.7571,65.6386 C121.6991,65.6386 121.6411,65.6386 121.6411,65.5796 C121.5241,65.5796 121.4061,65.5196 121.2901,65.5196 C120.9221,65.4556 120.5501,65.4166 120.1771,65.4036 C119.9811,65.4106 119.7841,65.3906 119.5921,65.3456 L119.5341,65.3456 C118.4641,65.2796 117.4051,65.1026 116.3721,64.8176 C116.0771,64.7026 115.8431,64.4696 115.7271,64.1736 C115.7271,64.1146 115.6691,64.1146 115.6691,64.0576 L114.9081,63.8216 C115.2671,61.0676 115.1281,58.2706 114.4981,55.5656 C113.8581,52.8386 112.7491,50.2426 111.2191,47.8956 L111.8041,47.3696 L111.8041,47.2526 C111.7941,46.9346 111.8971,46.6226 112.0971,46.3746 C112.9181,45.6886 113.7991,45.0816 114.7331,44.5606 C114.9091,44.4436 115.0841,44.3856 115.2591,44.2686 C115.6041,44.0956 115.9361,43.8996 116.2541,43.6836 C116.3141,43.6246 116.4301,43.5656 116.5471,43.4476 C116.6061,43.3896 116.6641,43.3896 116.6641,43.3316 C117.4691,42.6956 117.6481,41.5476 117.0741,40.6966 C116.7521,40.2816 116.2521,40.0426 115.7271,40.0526 C115.2581,40.0666 114.8071,40.2316 114.4401,40.5226 L114.3231,40.6406 C114.2061,40.6986 114.1471,40.8146 114.0311,40.8746 C113.7611,41.1336 113.5071,41.4066 113.2691,41.6946 C113.1481,41.8456 113.0101,41.9826 112.8601,42.1046 C112.1561,42.8886 111.3711,43.5946 110.5171,44.2126 C110.3641,44.3226 110.1801,44.3836 109.9911,44.3886 C109.8711,44.3966 109.7511,44.3766 109.6391,44.3286 L109.5231,44.3286 L108.8181,44.7996 C108.0611,44.0106 107.2591,43.2666 106.4171,42.5696 C102.8871,39.8106 98.6401,38.1246 94.1801,37.7096 L94.1221,36.9486 L94.0041,36.8316 C93.7571,36.6466 93.5891,36.3746 93.5351,36.0706 C93.5111,35.0146 93.5701,33.9566 93.7101,32.9086 L93.7101,32.8506 C93.7201,32.6506 93.7591,32.4536 93.8271,32.2656 C93.8851,31.9136 93.9441,31.5596 94.0021,31.1526 L94.0021,30.6256 C94.0821,29.6436 93.3491,28.7806 92.3661,28.7016 C91.8151,28.6566 91.2761,28.8696 90.9031,29.2766 C90.5521,29.6366 90.3631,30.1216 90.3771,30.6236 L90.3771,31.0946 C90.3731,31.4726 90.4321,31.8476 90.5521,32.2066 C90.6111,32.3816 90.6111,32.5576 90.6691,32.7916 L90.6691,32.8506 C90.8371,33.8946 90.8971,34.9546 90.8441,36.0126 C90.7901,36.3156 90.6221,36.5886 90.3741,36.7726 L90.2571,36.8906 L90.1991,37.6506 C89.1371,37.7506 88.0821,37.9076 87.0371,38.1216 C82.6011,39.0916 78.5611,41.3766 75.4451,44.6786 L74.8591,44.2686 L74.7441,44.2686 C74.6271,44.2686 74.5081,44.3276 74.3921,44.3276 C74.2041,44.3226 74.0201,44.2626 73.8661,44.1516 C73.0131,43.5126 72.2281,42.7856 71.5241,41.9856 C71.4021,41.8346 71.2651,41.6966 71.1141,41.5756 C70.8771,41.2876 70.6221,41.0146 70.3531,40.7556 C70.2941,40.6966 70.1771,40.6396 70.0601,40.5206 C70.0021,40.4616 69.9441,40.4616 69.9441,40.4036 C69.5821,40.1036 69.1271,39.9366 68.6561,39.9336 C68.1301,39.9246 67.6311,40.1626 67.3091,40.5776 C66.7361,41.4286 66.9151,42.5766 67.7191,43.2126 C67.7781,43.2126 67.7781,43.2706 67.8361,43.2706 C67.9531,43.3296 68.0111,43.4466 68.1281,43.5066 C68.4471,43.7236 68.7801,43.9186 69.1241,44.0916 C69.3111,44.1666 69.4881,44.2646 69.6511,44.3846 C70.5841,44.9046 71.4651,45.5136 72.2851,46.1986 C72.5091,46.4336 72.6171,46.7556 72.5781,47.0766 L72.5781,47.1936 L73.1631,47.7206 C73.0441,47.8636 72.9461,48.0216 72.8711,48.1906 C69.9701,52.7876 68.8071,58.2686 69.5911,63.6476 L68.8311,63.8836 C68.8311,63.9416 68.7721,63.9416 68.7721,63.9996 C68.6371,64.2816 68.4101,64.5096 68.1271,64.6436 C67.0961,64.9346 66.0361,65.1096 64.9661,65.1706 L64.9071,65.1706 C64.7101,65.1616 64.5131,65.1816 64.3221,65.2296 C63.9491,65.2426 63.5771,65.2816 63.2101,65.3466 C63.0921,65.3466 62.9741,65.4046 62.8581,65.4046 C62.7941,65.3966 62.7291,65.4186 62.6831,65.4646 C61.6791,65.6646 61.0091,66.6176 61.1611,67.6306 C61.3781,68.4726 62.1671,69.0386 63.0341,68.9766 C63.1931,68.9866 63.3521,68.9666 63.5041,68.9186 C63.5631,68.9186 63.6211,68.9186 63.6211,68.8586 C63.7381,68.8586 63.8561,68.8006 63.9721,68.8006 C64.3351,68.6986 64.6881,68.5606 65.0251,68.3886 C65.2011,68.3296 65.3761,68.2126 65.5511,68.1526 L65.6101,68.1526 C66.5891,67.7496 67.6111,67.4546 68.6551,67.2746 L68.7711,67.2746 C69.0491,67.2886 69.3161,67.3916 69.5321,67.5676 C69.5911,67.5676 69.5911,67.6266 69.6491,67.6266 L70.4691,67.5096 C71.8831,71.8546 74.5521,75.6846 78.1391,78.5166 C78.9411,79.1356 79.7821,79.7026 80.6571,80.2146 L80.3051,80.9756 C80.3051,81.0336 80.3641,81.0336 80.3641,81.0926 C80.5311,81.3766 80.5731,81.7166 80.4811,82.0326 C80.0621,82.9966 79.5521,83.9176 78.9591,84.7846 L78.9591,84.8436 C78.8421,85.0186 78.7241,85.1356 78.6081,85.3126 C78.3731,85.6056 78.1981,85.8986 77.9631,86.2546 C77.8921,86.3436 77.8341,86.4416 77.7881,86.5466 C77.7821,86.5906 77.7611,86.6316 77.7291,86.6636 C77.2431,87.5626 77.5771,88.6866 78.4771,89.1736 C78.4811,89.1766 78.4861,89.1786 78.4901,89.1806 C78.7091,89.2946 78.9501,89.3536 79.1961,89.3556 C79.9361,89.3206 80.6031,88.8976 80.9521,88.2436 C80.9591,88.1996 80.9791,88.1586 81.0111,88.1276 C81.0561,88.0216 81.1151,87.9246 81.1861,87.8346 C81.3211,87.4896 81.4381,87.1386 81.5381,86.7806 L81.7131,86.2546 C82.0081,85.2336 82.4211,84.2516 82.9431,83.3266 C83.1351,83.0756 83.4011,82.8916 83.7041,82.8006 C83.7631,82.8006 83.7631,82.8006 83.8211,82.7406 L84.2311,81.9796 C86.8461,82.9846 89.6261,83.5016 92.4271,83.5026 C94.1431,83.5136 95.8541,83.3166 97.5221,82.9166 C98.5541,82.6856 99.5711,82.3936 100.5671,82.0386 L100.9181,82.6836 C100.9761,82.6836 100.9761,82.6836 101.0351,82.7416 C101.3541,82.7956 101.6331,82.9876 101.7951,83.2686 C102.2811,84.2076 102.6911,85.1846 103.0231,86.1876 L103.0231,86.2466 L103.1991,86.7736 C103.2891,87.1336 103.4071,87.4856 103.5491,87.8276 C103.6081,87.9446 103.6671,88.0036 103.7251,88.1206 C103.7311,88.1646 103.7521,88.2056 103.7841,88.2366 C104.1141,88.9086 104.7931,89.3386 105.5411,89.3496 C105.7861,89.3476 106.0281,89.2866 106.2461,89.1736 C106.6691,88.9566 106.9861,88.5766 107.1221,88.1206 C107.2591,87.6346 107.2171,87.1146 107.0051,86.6566 C107.0051,86.5986 106.9471,86.5986 106.9471,86.5406 C106.9011,86.4356 106.8421,86.3366 106.7711,86.2476 C106.5901,85.9116 106.3751,85.5966 106.1271,85.3076 C106.0101,85.1316 105.8911,85.0156 105.7761,84.8366 L105.7761,84.7776 C105.1601,83.9256 104.6491,83.0016 104.2531,82.0256 C104.1801,81.7136 104.2011,81.3866 104.3121,81.0856 C104.3121,81.0266 104.3711,81.0266 104.3711,80.9696 L104.0791,80.2636 C108.9191,77.3686 112.5411,72.8106 114.2681,67.4416 L114.9731,67.5586 C115.0321,67.5586 115.0321,67.4996 115.0901,67.4996 C115.3121,67.3336 115.5761,67.2316 115.8511,67.2076 L115.9681,67.2076 C117.0121,67.3866 118.0331,67.6816 119.0121,68.0846 L119.0711,68.0846 C119.2471,68.1436 119.4221,68.2606 119.5981,68.3196 C119.9341,68.4916 120.2881,68.6296 120.6521,68.7296 C120.7691,68.7296 120.8871,68.7886 121.0031,68.7886 C121.0681,68.7806 121.1321,68.8026 121.1781,68.8476 C121.3311,68.8956 121.4901,68.9156 121.6491,68.9066 C122.4991,68.9076 123.2531,68.3656 123.5221,67.5596 C123.4161,66.6246 122.7391,65.8536 121.8251,65.6276 L121.8171,65.6386 Z" fill="#ACD1EF"></path>
        </g>
    </g>
</svg>

<svg width="269" height="120" viewBox="0 0 269 172" xmlns="http://www.w3.org/2000/svg">
    <g fill="none" fill-rule="evenodd">
        <path fill="#ACD1EF" d="M0 161.509h242.334v-11.333H0z"/>
        <path fill="#0078D7" d="M257.254 145.036v7.474h-7.474v3.606h7.474v7.472h3.605v-7.472h7.474v-3.607h-7.474v-7.473zM78.999 171.176H91V138.51H78.999zM91.928 14.801c-24.756 0-44.896 20.14-44.896 44.896 0 24.755 20.14 44.895 44.896 44.895s44.896-20.14 44.896-44.895c0-24.756-20.14-44.896-44.896-44.896m0 91.291c-25.583 0-46.396-20.812-46.396-46.395 0-25.584 20.813-46.396 46.396-46.396 25.583 0 46.396 20.812 46.396 46.396 0 25.583-20.813 46.395-46.396 46.395"/>
        <path d="M91.928 3C60.665 3 35.231 28.435 35.231 59.697c0 28.049 20.913 52.175 48.646 56.118l1.29.184v14.379l17.125-14.94.398-.076c26.617-5.116 45.935-28.526 45.935-55.665C148.625 28.435 123.191 3 91.928 3zm-9.762 133.976v-18.388c-28.559-4.706-49.935-29.793-49.935-58.891C32.231 26.78 59.011 0 91.928 0s59.697 26.78 59.697 59.697c0 28.439-20.149 52.99-47.969 58.532l-21.49 18.747z" fill="#0078D7"/>
        <path d="M107.648 70.498a18.591 18.591 0 01-5.62 5.68l-3.689-8.842a1.578 1.578 0 01.82-1.816c.257-.12.537-.18.82-.174l9.367 1.58a11.773 11.773 0 01-1.697 3.572zm-11.42 8.138a19.091 19.091 0 01-4.099.47 19.854 19.854 0 01-5.914-.94l4.624-8.373a1.536 1.536 0 011.873-.41c.275.168.515.386.707.644l4.507 8.139c-.526.176-1.112.292-1.697.47h-.002zM74.86 66.985l9.308-1.581a1.579 1.579 0 011.64 1.23c.071.312.051.639-.058.94l-3.572 8.604a18.458 18.458 0 01-7.318-9.193zm1.58-15.867l6.968 6.206a1.56 1.56 0 01.176 2.166c-.168.24-.42.408-.707.47l-9.07 2.634a18.846 18.846 0 012.633-11.476zm11.535-8.313c.644-.118 1.23-.236 1.873-.352l-.527 9.368a1.602 1.602 0 01-1.58 1.519 1.394 1.394 0 01-.706-.176L79.25 47.6a17.864 17.864 0 018.723-4.801l.004.006zm16.98 4.799l-7.67 5.446a1.56 1.56 0 01-2.05-.351 1.3 1.3 0 01-.292-.644l-.527-9.544a17.778 17.778 0 0110.54 5.094l-.002-.001zm5.037 9.077a18.43 18.43 0 01.41 5.913l-8.96-2.576a1.587 1.587 0 01-1.113-1.874c.057-.242.178-.464.351-.644l7.084-6.381a18.78 18.78 0 012.226 5.565l.002-.003zM94.71 62.769l-2.576 1.23-2.577-1.23-.643-2.751 1.756-2.225h2.87l1.755 2.225-.585 2.75zm27.108 2.87h-.06c-.058 0-.116 0-.116-.06-.117 0-.235-.06-.35-.06a8.155 8.155 0 00-1.114-.115 2.22 2.22 0 01-.585-.058h-.058a15.465 15.465 0 01-3.162-.528 1.136 1.136 0 01-.645-.644c0-.06-.058-.06-.058-.116l-.76-.236c.358-2.754.22-5.551-.41-8.256a24.148 24.148 0 00-3.28-7.67l.585-.526v-.117c-.01-.318.093-.63.293-.878a17.104 17.104 0 012.636-1.814c.176-.117.351-.175.526-.292a8.76 8.76 0 00.995-.585c.06-.06.176-.118.293-.236.06-.058.117-.058.117-.116a1.96 1.96 0 00.41-2.635 1.666 1.666 0 00-1.347-.644c-.469.014-.92.179-1.287.47l-.117.118c-.117.058-.176.174-.292.234a9.68 9.68 0 00-.762.82 2.734 2.734 0 01-.409.41 14.841 14.841 0 01-2.343 2.108.945.945 0 01-.526.176.762.762 0 01-.352-.06h-.116l-.705.47a28.599 28.599 0 00-2.4-2.23 23.389 23.389 0 00-12.238-4.86l-.058-.76-.118-.117a1.217 1.217 0 01-.469-.761 20.39 20.39 0 01.175-3.162v-.058c.01-.2.05-.397.117-.585.058-.352.117-.706.175-1.113v-.527a1.786 1.786 0 00-3.099-1.35c-.35.36-.54.846-.526 1.348v.47a3.39 3.39 0 00.175 1.113c.06.175.06.35.117.585v.059c.168 1.044.228 2.104.175 3.162a1.212 1.212 0 01-.47.76l-.117.118-.058.76c-1.062.1-2.117.257-3.162.47a22.566 22.566 0 00-11.592 6.558l-.586-.41h-.115c-.117 0-.236.059-.352.059a.942.942 0 01-.526-.176 15.505 15.505 0 01-2.342-2.166 2.694 2.694 0 00-.41-.41 9.669 9.669 0 00-.76-.82c-.06-.06-.177-.116-.294-.235-.058-.06-.116-.06-.116-.117a2.04 2.04 0 00-1.288-.47 1.667 1.667 0 00-1.347.644 1.962 1.962 0 00.41 2.635c.06 0 .06.058.117.058.117.059.175.176.292.236.32.217.652.412.996.585.187.075.364.173.527.293.933.52 1.814 1.129 2.634 1.814.224.235.332.557.293.878v.117l.585.527a2.007 2.007 0 00-.292.47 22.8 22.8 0 00-3.28 15.457l-.76.236c0 .058-.059.058-.059.116-.135.282-.362.51-.645.644a14.718 14.718 0 01-3.16.527h-.06a2.021 2.021 0 00-.585.059 7.972 7.972 0 00-1.112.117c-.118 0-.236.058-.352.058a.211.211 0 00-.175.06 1.918 1.918 0 00-1.522 2.166 1.801 1.801 0 001.873 1.346c.16.01.318-.01.47-.058.06 0 .117 0 .117-.06.117 0 .235-.058.351-.058.363-.102.716-.24 1.053-.412.176-.06.351-.176.526-.236h.06a14.456 14.456 0 013.044-.878h.116c.278.014.545.117.761.293.06 0 .06.059.117.059l.82-.117a23.154 23.154 0 007.67 11.007 23.76 23.76 0 002.518 1.698l-.352.76c0 .059.06.059.06.118.166.284.208.624.116.94a16.586 16.586 0 01-1.522 2.752v.059c-.117.175-.235.292-.35.469-.236.293-.41.586-.646.942a1.308 1.308 0 00-.175.292.205.205 0 01-.059.117 1.852 1.852 0 00.748 2.51l.013.007c.22.114.46.173.706.175a2.104 2.104 0 001.756-1.112.206.206 0 01.06-.116c.044-.106.103-.203.174-.293.135-.345.252-.696.352-1.054l.175-.526a13.687 13.687 0 011.23-2.928c.192-.251.458-.435.761-.526.06 0 .06 0 .117-.06l.41-.761a22.878 22.878 0 008.196 1.523 21.266 21.266 0 005.095-.586 25.95 25.95 0 003.045-.878l.351.645c.058 0 .058 0 .117.058.32.054.598.246.76.527.486.939.896 1.916 1.228 2.919v.059l.176.527c.09.36.208.712.35 1.054.06.117.118.176.176.293a.2.2 0 00.06.116 1.99 1.99 0 001.756 1.113c.245-.002.487-.063.705-.176.423-.217.74-.597.876-1.053a2.12 2.12 0 00-.117-1.464c0-.058-.058-.058-.058-.116a1.318 1.318 0 00-.176-.293 5.304 5.304 0 00-.644-.94c-.117-.176-.236-.292-.35-.471v-.06a13.106 13.106 0 01-1.524-2.751 1.639 1.639 0 01.06-.94c0-.06.058-.06.058-.116l-.292-.706a23.23 23.23 0 0010.19-12.822l.704.117c.06 0 .06-.06.117-.06a1.49 1.49 0 01.761-.291h.117c1.044.179 2.065.474 3.044.877h.06c.175.059.35.176.526.235.336.172.69.31 1.054.41.117 0 .235.059.351.059a.213.213 0 01.175.059c.153.048.312.068.471.059a1.97 1.97 0 001.873-1.347 2.252 2.252 0 00-1.697-1.932l-.008.01z" fill="#ACD1EF"/>
    </g>
</svg>
